X:1
T:Title
L:1/8
M:4/4
K:C
V:1 treble nm="Steel Gtr., Staff"
V:1
 G2 G2 E3 E | D2 C2 E G3 | z2 AB c2 A2 | F3 G A4 | z2 cc c2 c2 | d c2 A G2 E2 | z2 GG G2 G2 | %7
w: By~Leland~Bryant~Ross * * *|||||||
 F E3 D4- |[M:2/4] D2 z2 | G2 G2 |[M:4/4] E3 E D2 C2 | E G3- G3/2 z/ AB | c2 A2 F3 G | A4 z2 c2 | %14
w: |||||||
 c2 c2 d c2 A | G2 E2 z2 EG | F2 E2 D D3 | C4 G2 G2 | E3 E D2 C2 | E G3 z2 AB | c2 A2 F3 G | %21
w: |||||||
 A4 z2 cc | c2 c2 d c2 A | G2 E2 z2 GG | G2 G2 F E3 | D6 z2 |[M:2/4] z G- G<G |[M:4/4] E3 E D2 C2 | %28
w: |||||||
 E G3- G3/2 z/ AB | c2 A2 F3 G | A4 z2 cc | c2 c2 d c2 A | G2 E2 z2 EG | F2 E2 D D3 | C4 G2 G2 | %35
w: |||||||
 E3 E D2 C2 | E G3 z2 AB | c2 A2 F3 G | A4 z2 cc | c2 c2 d c2 A | G2 E2 z2 GG | G2 G2 F E3 | %42
w: |||||||
 D6 z2 |[M:2/4] G>G- (3:2:2G G2 |[M:4/4] E3 E D2 C2 | E G3- G3/2 z/ AB | c2 A2 F3 G | A4 z2 cc | %48
w: ||||||
 c2 c2 d c2 A | G2 E2 z2 EG | F2 EE D D3 | C4 G2 G2 | E3 E D2 C2 | E G3 z2 AB | c2 A2 F3 G | %55
w: |||||||
 A4 z2 cc | c2 c2 d c2 A | G2 E2 z2 GG | G2 G2 F E3 | D6 z2 |[M:2/4] G2 G2 |[M:4/4] E3 E D2 C2 | %62
w: |||||||
 E G3- G3/2 z/ AB | c2 A2 F3 G | A4 z2 cc | c2 c2 d c2 A | G2 E2 z2 EG | F2 E2 D D3 | C4 G2 G2 | %69
w: |||||||
 E3 E D2 C2 | E G3 z2 AB | c2 A2 F3 G | A4 z2 cc | c2 c2 d c2 A | G2 E2 z2 GG | G2 G2 F E3 | %76
w: |||||||
 D6 z2 |[M:2/4] G2 G2 |[M:4/4] E3 E D2 C2 | E G3- G3/2 z/ AB | c2 A2 F3 G | A4 z2 cc | %82
w: ||||||
 c2 c2 d c2 A | G2 E2 z2 EG | F2 E2 D D3 | C4 G2 G2 | E3 E D2 C2 | E G3 z2 AB | c2 A2 F3 G | %89
w: |||||||
 A4 z2 cc | c2 c2 d c2 A | G2 E2 z2 GG | G2 G2 F E3 | D6 z2 |[M:2/4] G G3 |[M:4/4] E3 E D2 C2 | %96
w: |||||||
 E G3- G3/2 z/ AB | c2 A2 F3 G | A4 z2 cc | c2 c2 d c2 A | G2 E2 z2 EG | F2 E2 D D3 | C4 G2 G2 | %103
w: |||||||
 E3 E D2 C2 | E G3 z2 AB | c2 A2 F3 G | A4 z2 cc | c2 c2 d c2 A | G2 E2 z2 GG | G2 G2 F E3 | %110
w: |||||||
 D6 z2 |[M:2/4] G2 G2 |[M:4/4] E3 E D2 C2 | E G3- G3/2 z/ AB | c2 A2 F3 G | A4 z2 cc | %116
w: ||||||
 c2 c2 d c2 A | G2 E2 z2 EG | F2 E2 D D3 | C4 G2 G2 | E3 E D2 C2 | E G3 z2 AB | c2 A2 F3 G | %123
w: |||||||
 A4 z2 cc | c2 c2 d c2 A | G2 E2 z2 GG | G2 G2 F E3 | D4- D E3 | F3 G- G<G E2- | EE D2 C2 EG- | %130
w: |||||||
 G4 AB c2 | A2 F2- F/ z/ G A2- | A2 z2 cc c2 | c2 dc- cA G2 | E2 z2 EG F2 | E2 DD- D3/2 z/ C2- | %136
w: ||||||
 C2 z2 z4 |] %137
w: |

